public/static/icons/editor/embedded.svg

<svg height="24" viewBox="0 0 24 24" width="24" xmlns="http://www.w3.org/2000/svg"><g fill-rule="evenodd"><path d="m3.47368362.5c-.11968391 0-.23742198.00669674-.35403025.01871736-.23240402.02395923-.45806101.07157636-.67475369.13975621-1.08876338.34257162-1.94958903 1.21336054-2.28823931 2.31472356-.06740152.2192007-.11447207.44746946-.13815716.68256334-.0000423.00041186.0000423.0008362 0 .00124806-.01180201.11755852-.01850321.23622961-.01850321.35687976v1.27777838 14.69444503c0 1.9293006 1.56645914 3.5138883 3.47368362 3.5138883h17.05263158c1.9072262 0 3.4736848-1.5845895 3.4736848-3.5138883v-14.69444503-1.27777838c0-.12100317-.0064838-.24014139-.0185044-.35812782-.0236851-.23509388-.0707574-.46336264-.1381571-.68256334-.3386521-1.1013648-1.1994777-1.97215372-2.2882411-2.31472356-.2166927-.06818163-.4423497-.11579698-.6747537-.13975621-.0004054-.000041-.0008284.00004101-.0012338 0-.1162399-.01207767-.2335937-.01871736-.3527965-.01871736zm0 1.91666667c.52294737 0 .94736842.42933333.94736842.95833333s-.42442105.95833333-.94736842.95833333-.94736842-.42933333-.94736842-.95833333.42442105-.95833333.94736842-.95833333zm3.15789533 0c.52294737 0 .94736842.42933333.94736842.95833333s-.42442105.95833333-.94736842.95833333-.94736842-.42933333-.94736842-.95833333.42442105-.95833333.94736842-.95833333zm-4.73684211 3.83333333h20.21052686v13.7361117c0 .8933111-.6958566 1.5972216-1.5789467 1.5972216h-17.05263161c-.88309014 0-1.57894855-.7039105-1.57894855-1.5972216z"/><path d="m4.8164557 13.8227848c.34599156 0 .63502109-.1181434.8670886-.3544304.23206751-.2362869.34810127-.5274261.34810127-.8734177s-.11603376-.6371308-.34810127-.8734177-.52109704-.3544304-.8670886-.3544304c-.35443038 0-.64767933.1181435-.87974684.3544304s-.34810127.5274261-.34810127.8734177.11603376.6371308.34810127.8734177c.23206751.236287.52531646.3544304.87974684.3544304zm0 3.9746836c.34599156 0 .63502109-.1181435.8670886-.3544304s.34810127-.5274262.34810127-.8734177c0-.3459916-.11603376-.6371308-.34810127-.8734178-.23206751-.2362869-.52109704-.3544303-.8670886-.3544303-.35443038 0-.64767933.1181434-.87974684.3544303-.23206751.236287-.34810127.5274262-.34810127.8734178 0 .3459915.11603376.6371308.34810127.8734177s.52531646.3544304.87974684.3544304zm3.10126582.9367088c.18565401 0 .35232067-.0506329.5-.1518987.14767932-.1012658.25527426-.2531646.32278481-.4556962l2.87341777-9.02531648c.0337552-.13502109.0506329-.2278481.0506329-.27848101 0-.24472574-.0907173-.44303797-.2721519-.59493671-.1814346-.15189873-.3902954-.2278481-.6265823-.2278481-.1772152 0-.3396625.05063291-.4873418.15189873-.1476793.10126583-.2552742.25316456-.3227848.45569621l-2.87341772 9.02531646c-.03375527.092827-.05063291.1898734-.05063291.2911392 0 .236287.08860759.4303798.26582278.5822785s.38396625.2278481.62025317.2278481zm3.75949368 0c.185654 0 .3523207-.0506329.5-.1518987s.2552743-.2531646.3227848-.4556962l2.8734177-9.02531648c.0337553-.13502109.0506329-.2278481.0506329-.27848101 0-.24472574-.0907173-.44303797-.2721519-.59493671-.1814346-.15189873-.3902953-.2278481-.6265822-.2278481-.1772152 0-.3396625.05063291-.4873418.15189873-.1476793.10126583-.2552743.25316456-.3227848.45569621l-2.8734177 9.02531646c-.0337553.092827-.050633.1898734-.050633.2911392 0 .236287.0886076.4303798.2658228.5822785s.3839663.2278481.6202532.2278481zm7.8860759.2658228c.2616034 0 .4683545-.0590717.6202532-.1772152.1518987-.1181434.2278481-.2742616.2278481-.4683544s-.0759494-.3481013-.2278481-.4620253c-.1518987-.1139241-.3586498-.1708861-.6202532-.1708861h-4.6329114c-.2616033 0-.4683544.056962-.6202531.1708861-.1518988.113924-.2278481.2679325-.2278481.4620253s.0759493.350211.2278481.4683544c.1518987.1181435.3586498.1772152.6202531.1772152z"/></g></svg>

<svg xmlns="http://www.w3.org/2000/svg" width="24" height="24" viewBox="0 0 24 24">
  <g fill="none" fill-rule="evenodd">
    <path fill="#000" d="M3.47368362,0.5 C3.35399971,0.5 3.23626164,0.506696744 3.11965337,0.518717364 C2.88724935,0.542676589 2.66159236,0.590293721 2.44489968,0.658473566 C1.3561363,1.00104519 0.495310649,1.87183411 0.156660367,2.97319713 C0.0892588494,3.19239783 0.0421882987,3.42066659 0.0185032069,3.65576047 C0.0184609058,3.65617233 0.018545508,3.65659667 0.0185032069,3.65700853 C0.00670119951,3.77456705 0,3.89323814 0,4.01388829 L0,5.29166667 L0,19.9861117 C0,21.9154123 1.56645914,23.5 3.47368362,23.5 L20.5263152,23.5 C22.4335414,23.5 24,21.9154105 24,19.9861117 L24,5.29166667 L24,4.01388829 C24,3.89288512 23.9935162,3.7737469 23.9814956,3.65576047 C23.9578105,3.42066659 23.9107382,3.19239783 23.8433385,2.97319713 C23.5046864,1.87183233 22.6438608,1.00104341 21.5550974,0.658473566 C21.3384047,0.590291938 21.1127477,0.542676589 20.8803437,0.518717364 C20.8799383,0.518676357 20.8795153,0.518758372 20.8791099,0.518717364 C20.76287,0.50663969 20.6455162,0.5 20.5263134,0.5 L3.47368362,0.5 Z M3.47368362,2.41666667 C3.99663099,2.41666667 4.42105204,2.846 4.42105204,3.375 C4.42105204,3.904 3.99663099,4.33333333 3.47368362,4.33333333 C2.95073625,4.33333333 2.5263152,3.904 2.5263152,3.375 C2.5263152,2.846 2.95073625,2.41666667 3.47368362,2.41666667 Z M6.63157895,2.41666667 C7.15452632,2.41666667 7.57894737,2.846 7.57894737,3.375 C7.57894737,3.904 7.15452632,4.33333333 6.63157895,4.33333333 C6.10863158,4.33333333 5.68421053,3.904 5.68421053,3.375 C5.68421053,2.846 6.10863158,2.41666667 6.63157895,2.41666667 Z M1.89473684,6.25 L22.1052637,6.25 L22.1052637,19.9861117 C22.1052637,20.8794228 21.4094071,21.5833333 20.526317,21.5833333 L3.47368539,21.5833333 C2.59059525,21.5833333 1.89473684,20.8794228 1.89473684,19.9861117 L1.89473684,6.25 Z"/>
    <path fill="#000" d="M4.8164557,13.8227848 C5.16244726,13.8227848 5.45147679,13.7046414 5.6835443,13.4683544 C5.91561181,13.2320675 6.03164557,12.9409283 6.03164557,12.5949367 C6.03164557,12.2489451 5.91561181,11.9578059 5.6835443,11.721519 C5.45147679,11.4852321 5.16244726,11.3670886 4.8164557,11.3670886 C4.46202532,11.3670886 4.16877637,11.4852321 3.93670886,11.721519 C3.70464135,11.9578059 3.58860759,12.2489451 3.58860759,12.5949367 C3.58860759,12.9409283 3.70464135,13.2320675 3.93670886,13.4683544 C4.16877637,13.7046414 4.46202532,13.8227848 4.8164557,13.8227848 Z M4.8164557,17.7974684 C5.16244726,17.7974684 5.45147679,17.6793249 5.6835443,17.443038 C5.91561181,17.2067511 6.03164557,16.9156118 6.03164557,16.5696203 C6.03164557,16.2236287 5.91561181,15.9324895 5.6835443,15.6962025 C5.45147679,15.4599156 5.16244726,15.3417722 4.8164557,15.3417722 C4.46202532,15.3417722 4.16877637,15.4599156 3.93670886,15.6962025 C3.70464135,15.9324895 3.58860759,16.2236287 3.58860759,16.5696203 C3.58860759,16.9156118 3.70464135,17.2067511 3.93670886,17.443038 C4.16877637,17.6793249 4.46202532,17.7974684 4.8164557,17.7974684 Z M7.91772152,18.7341772 C8.10337553,18.7341772 8.27004219,18.6835443 8.41772152,18.5822785 C8.56540084,18.4810127 8.67299578,18.3291139 8.74050633,18.1265823 L8.74050633,18.1265823 L11.6139241,9.10126582 C11.6476793,8.96624473 11.664557,8.87341772 11.664557,8.82278481 C11.664557,8.57805907 11.5738397,8.37974684 11.3924051,8.2278481 C11.2109705,8.07594937 11.0021097,8 10.7658228,8 C10.5886076,8 10.4261603,8.05063291 10.278481,8.15189873 C10.1308017,8.25316456 10.0232068,8.40506329 9.9556962,8.60759494 L9.9556962,8.60759494 L7.08227848,17.6329114 C7.04852321,17.7257384 7.03164557,17.8227848 7.03164557,17.9240506 C7.03164557,18.1603376 7.12025316,18.3544304 7.29746835,18.5063291 C7.47468354,18.6582278 7.6814346,18.7341772 7.91772152,18.7341772 Z M11.6772152,18.7341772 C11.8628692,18.7341772 12.0295359,18.6835443 12.1772152,18.5822785 C12.3248945,18.4810127 12.4324895,18.3291139 12.5,18.1265823 L12.5,18.1265823 L15.3734177,9.10126582 C15.407173,8.96624473 15.4240506,8.87341772 15.4240506,8.82278481 C15.4240506,8.57805907 15.3333333,8.37974684 15.1518987,8.2278481 C14.9704641,8.07594937 14.7616034,8 14.5253165,8 C14.3481013,8 14.185654,8.05063291 14.0379747,8.15189873 C13.8902954,8.25316456 13.7827004,8.40506329 13.7151899,8.60759494 L13.7151899,8.60759494 L10.8417722,17.6329114 C10.8080169,17.7257384 10.7911392,17.8227848 10.7911392,17.9240506 C10.7911392,18.1603376 10.8797468,18.3544304 11.056962,18.5063291 C11.2341772,18.6582278 11.4409283,18.7341772 11.6772152,18.7341772 Z M19.5632911,19 C19.8248945,19 20.0316456,18.9409283 20.1835443,18.8227848 C20.335443,18.7046414 20.4113924,18.5485232 20.4113924,18.3544304 C20.4113924,18.1603376 20.335443,18.0063291 20.1835443,17.8924051 C20.0316456,17.778481 19.8248945,17.721519 19.5632911,17.721519 L19.5632911,17.721519 L14.9303797,17.721519 C14.6687764,17.721519 14.4620253,17.778481 14.3101266,17.8924051 C14.1582278,18.0063291 14.0822785,18.1603376 14.0822785,18.3544304 C14.0822785,18.5485232 14.1582278,18.7046414 14.3101266,18.8227848 C14.4620253,18.9409283 14.6687764,19 14.9303797,19 L14.9303797,19 L19.5632911,19 Z"/>
  </g>
</svg>
